X: 22273
T: La Muneira Do Areal
R: jig
M: 6/8
K: Gmajor
GBd|cAF FAe|dBG GBg|fdf ece|dBG GBd|
cAF FAe|dBG GBg|fed cBA|1 G3:|2 G6-|G6-|G3||
|:GBd|g2g fgf|e2e cde|f2f efe|e2 d4-|d6-|d3:|
|:Bcd|e2e ded|c2A f2e|
[1 ded cBc|e2d4-|d6-|d3:|2 ded cBA|G3||

